public/img/calendar.svg

<svg width="16" height="16" viewBox="0 0 16 16" fill="none" xmlns="http://www.w3.org/2000/svg">
<mask id="mask0_579_60" style="mask-type:alpha" maskUnits="userSpaceOnUse" x="0" y="0" width="16" height="16">
<rect width="16" height="16" fill="#D9D9D9"/>
</mask>
<g mask="url(#mask0_579_60)">
<path d="M11.3333 14.6666V12.6666H9.33333V11.3333H11.3333V9.33331H12.6667V11.3333H14.6667V12.6666H12.6667V14.6666H11.3333ZM3.33333 13.3333C2.96667 13.3333 2.65278 13.2028 2.39167 12.9416C2.13056 12.6805 2 12.3666 2 12V3.99998C2 3.63331 2.13056 3.31942 2.39167 3.05831C2.65278 2.7972 2.96667 2.66665 3.33333 2.66665H4V1.33331H5.33333V2.66665H9.33333V1.33331H10.6667V2.66665H11.3333C11.7 2.66665 12.0139 2.7972 12.275 3.05831C12.5361 3.31942 12.6667 3.63331 12.6667 3.99998V8.06665C12.4444 8.03331 12.2222 8.01665 12 8.01665C11.7778 8.01665 11.5556 8.03331 11.3333 8.06665V6.66665H3.33333V12H8C8 12.2222 8.01667 12.4444 8.05 12.6666C8.08333 12.8889 8.14444 13.1111 8.23333 13.3333H3.33333ZM3.33333 5.33331H11.3333V3.99998H3.33333V5.33331Z" fill="#A3FF87"/>
</g>
</svg>

<svg xmlns="http://www.w3.org/2000/svg" width="16" height="16" fill="none"><mask id="a" width="16" height="16" x="0" y="0" maskUnits="userSpaceOnUse" style="mask-type:alpha"><path fill="#D9D9D9" d="M0 0h16v16H0z"/></mask><g mask="url(#a)"><path fill="#A3FF87" d="M11.333 14.667v-2h-2v-1.334h2v-2h1.334v2h2v1.334h-2v2zm-8-1.334q-.55 0-.941-.391A1.28 1.28 0 0 1 2 12V4q0-.55.392-.942.391-.39.941-.391H4V1.333h1.333v1.334h4V1.333h1.334v1.334h.666q.55 0 .942.391.392.392.392.942v4.067a4.5 4.5 0 0 0-1.334 0v-1.4h-8V12H8q0 .333.05.667.05.333.183.666zm0-8h8V4h-8z"/></g></svg>
